Assets/SVG APPS/Outlook.svg

<?xml version="1.0" encoding="UTF-8"?>
<svg xmlns="http://www.w3.org/2000/svg" xmlns:xlink="http://www.w3.org/1999/xlink" width="95px" height="95px" viewBox="0 0 95 95" version="1.1">
<g id="surface1">
<path style="fill:none;stroke-width:2.7832;stroke-linecap:butt;stroke-linejoin:miter;stroke:rgb(0%,0%,0%);stroke-opacity:1;stroke-miterlimit:1.8555;" d="M 24.699219 87 L 70.300781 87 L 93.101562 47.5 L 70.300781 8 L 24.699219 8 L 1.898438 47.5 Z M 24.699219 87 "/>
<path style=" stroke:none;fill-rule:nonzero;fill:rgb(0%,0%,0%);fill-opacity:1;" d="M 52.898438 21.398438 L 52.898438 30.398438 C 52.898438 31 53.398438 31.5 54 31.5 L 57.5 31.5 C 59 31.5 60.398438 31.5 61.898438 31.5 C 62.898438 31.5 64 31.5 65 31.5 C 66.5 31.5 67.898438 31.5 69.398438 31.5 C 69.898438 31.5 70.300781 31.5 70.800781 31.5 C 71.800781 31.5 72.800781 31.5 73.699219 31.601562 C 74 31.601562 74.300781 31.699219 74.398438 31.898438 C 75.5 33.101562 75.398438 33.800781 75.398438 35.699219 C 75.398438 36.300781 75.398438 37 75.398438 37.601562 C 75.398438 38.300781 75.398438 39 75.398438 39.699219 C 75.398438 40.398438 75.398438 41.101562 75.398438 41.800781 C 75.398438 43.601562 75.398438 45.5 75.398438 47.300781 C 75.398438 48.398438 75.398438 49.601562 75.398438 50.699219 C 75.398438 52.898438 75.398438 55 75.398438 57.199219 C 75.398438 57.898438 75.398438 58.601562 75.398438 59.300781 C 75.398438 60.199219 75.398438 60.199219 75.398438 61.199219 C 75.398438 61.800781 75.398438 62.300781 75.398438 62.898438 C 75.300781 64.101562 75.300781 64.199219 74.398438 65 C 74.199219 65.199219 73.898438 65.300781 73.699219 65.300781 C 72.199219 65.398438 70.800781 65.398438 69.398438 65.398438 C 68.898438 65.398438 68.5 65.398438 68 65.398438 C 66.5 65.398438 65 65.398438 63.5 65.398438 C 62.5 65.398438 61.5 65.398438 60.398438 65.398438 C 58.300781 65.398438 56.101562 65.398438 54 65.398438 C 53.398438 65.398438 52.898438 65.898438 52.898438 66.5 L 52.898438 75.5 C 52.898438 76.101562 52.398438 76.601562 51.800781 76.601562 C 47.800781 76.601562 47.699219 76.601562 45.800781 76.300781 C 45.300781 76.199219 44.898438 76.199219 44.398438 76.101562 C 43.699219 76 43.699219 76 42.898438 75.898438 C 42.398438 75.800781 41.898438 75.699219 41.398438 75.601562 C 40.300781 75.398438 39.300781 75.199219 38.199219 75.101562 C 36.601562 74.800781 34.898438 74.601562 33.300781 74.300781 C 32.300781 74.101562 31.199219 74 30.199219 73.800781 C 29.699219 73.699219 29.199219 73.601562 28.699219 73.601562 C 28.199219 73.5 27.800781 73.398438 27.300781 73.398438 L 26 72.800781 C 25.898438 72.800781 25.898438 72.800781 25.800781 72.800781 C 24.5 72.398438 23.699219 72 22.800781 71.101562 C 22.601562 70.898438 22.5 70.699219 22.5 70.5 C 22.300781 69.199219 22.199219 68 22.300781 66.601562 C 22.300781 66.199219 22.300781 65.699219 22.300781 65.300781 C 22.300781 63.898438 22.300781 62.398438 22.300781 61 C 22.300781 60 22.300781 59 22.300781 58 C 22.300781 55.898438 22.300781 53.800781 22.300781 51.699219 C 22.300781 49 22.300781 46.300781 22.300781 43.601562 C 22.300781 41.5 22.300781 39.5 22.300781 37.398438 C 22.300781 36.398438 22.300781 35.398438 22.300781 34.398438 C 22.300781 33 22.300781 31.601562 22.300781 30.199219 C 22.300781 29.800781 22.300781 29.398438 22.300781 29 C 22.300781 27.300781 22.398438 26.300781 23.398438 25.101562 C 23.5 25 23.601562 24.898438 23.800781 24.800781 C 24.898438 24.300781 25.898438 24 27.199219 23.699219 C 27.699219 23.601562 28.101562 23.5 28.601562 23.5 C 29.300781 23.398438 29.300781 23.398438 30.101562 23.300781 C 30.601562 23.199219 31.101562 23.101562 31.601562 23 C 32.699219 22.800781 33.800781 22.601562 34.800781 22.5 C 36.398438 22.199219 38.101562 22 39.699219 21.699219 C 40.699219 21.5 41.800781 21.398438 42.800781 21.199219 C 43.300781 21.101562 43.800781 21 44.300781 21 C 45 20.898438 45 20.898438 45.699219 20.800781 L 46.898438 20.601562 C 46.898438 20.601562 47 20.601562 47 20.601562 C 48.601562 20.398438 50.199219 20.5 51.800781 20.5 C 52.398438 20.300781 52.898438 20.800781 52.898438 21.398438 Z M 47.800781 22.898438 C 47.101562 23 47.101562 23 46.300781 23.101562 C 45.5 23.199219 45.5 23.199219 44.699219 23.398438 C 44.199219 23.5 43.601562 23.601562 43.101562 23.699219 C 42 23.898438 40.800781 24.101562 39.699219 24.199219 C 38 24.5 36.199219 24.800781 34.5 25 C 33.398438 25.199219 32.300781 25.398438 31.199219 25.5 C 30.699219 25.601562 30.199219 25.699219 29.601562 25.800781 C 29.101562 25.898438 28.601562 26 28.101562 26 C 27.5 26.101562 27.5 26.101562 26.800781 26.199219 C 26 26.300781 25.800781 26.398438 25.199219 26.601562 C 24.800781 26.800781 24.601562 27.199219 24.601562 27.601562 L 24.601562 68.699219 C 24.601562 69.199219 25 69.699219 25.398438 69.800781 C 33.199219 71.699219 41.199219 72.699219 49.101562 73.898438 C 49.800781 74 50.398438 73.5 50.398438 72.800781 L 50.398438 23.699219 C 50.398438 23 49.800781 22.5 49.199219 22.601562 C 48.898438 22.699219 48.300781 22.800781 47.800781 22.898438 Z M 52.898438 34.800781 L 52.898438 47.601562 C 52.898438 48.5 54 49 54.699219 48.398438 L 56.800781 46.601562 C 57.398438 46 58.101562 45.5 58.800781 44.898438 C 61.199219 42.800781 63.5 40.699219 65.800781 38.601562 C 66.199219 38.300781 66.601562 37.898438 66.898438 37.5 C 67.300781 37.199219 67.601562 36.800781 68 36.5 C 68.300781 36.199219 68.601562 35.898438 69 35.601562 C 69.699219 34.898438 69.199219 33.699219 68.300781 33.699219 L 54 33.699219 C 53.398438 33.699219 52.898438 34.199219 52.898438 34.800781 Z M 70.5 37.199219 C 70.101562 37.601562 69.699219 38 69.300781 38.398438 C 68.898438 38.800781 68.398438 39.199219 68 39.601562 C 65.101562 42.300781 62.300781 45 59.300781 47.601562 C 58.898438 48 58.800781 48.699219 59.199219 49.101562 C 60.5 50.800781 62 52.101562 63.699219 53.5 C 66.398438 55.699219 69 57.898438 71.5 60.300781 C 71.5 60.300781 71.601562 60.300781 71.601562 60.398438 C 72.5 61.300781 72.5 61.300781 73.199219 61.300781 L 73.199219 37.300781 C 73.199219 36.300781 72 35.800781 71.300781 36.5 C 70.898438 36.800781 70.699219 37 70.5 37.199219 Z M 53.101562 52.601562 C 52.898438 52.800781 52.800781 53 52.699219 53.199219 C 52.398438 54.800781 52.5 56.398438 52.601562 58 L 52.800781 61.898438 C 52.800781 62.5 53.300781 63 53.898438 63 L 67.800781 63 C 68.699219 63 69.300781 61.898438 68.601562 61.199219 C 67.300781 59.699219 66.101562 58.5 64.398438 57.199219 C 62.101562 55.300781 59.800781 53.398438 57.5 51.398438 C 55.898438 49.800781 54.601562 51.300781 53.101562 52.601562 Z M 53.101562 52.601562 "/>
<path style=" stroke:none;fill-rule:nonzero;fill:rgb(0%,0%,0%);fill-opacity:1;" d="M 40 39.898438 C 42.898438 41.199219 44.601562 42.5 45.601562 45 C 45.699219 46.101562 45.699219 47.101562 45.699219 48.199219 C 45.699219 48.800781 45.699219 49.300781 45.699219 49.898438 C 45.398438 52.300781 44.5 53.800781 42.398438 55.398438 C 40.101562 56.699219 38.199219 57 35.398438 56.601562 C 32.5 55.300781 30.800781 54 29.800781 51.5 C 29.699219 50.398438 29.699219 49.398438 29.699219 48.300781 C 29.699219 47.5 29.699219 47.5 29.699219 46.601562 C 30 44.199219 30.898438 42.699219 33 41.101562 C 35.300781 39.898438 37.199219 39.601562 40 39.898438 Z M 33.800781 43.199219 C 32.199219 45.5 31.699219 47.601562 32.101562 50.199219 C 32.800781 52.199219 33.300781 53.199219 35.300781 54.398438 C 37.601562 55 38.800781 54.699219 41 53.898438 C 43 52.199219 43.199219 50.699219 43.398438 48.398438 C 43.398438 46.398438 42.800781 44.898438 41.601562 43.199219 C 38.5 41.5 37 41.5 33.800781 43.199219 Z M 33.800781 43.199219 "/>
</g>
</svg>

<?xml version="1.0" encoding="utf-8"?>
<!-- Generator: Adobe Illustrator 24.3.0, SVG Export Plug-In . SVG Version: 6.00 Build 0)  -->
<svg version="1.1" id="Слой_1" xmlns="http://www.w3.org/2000/svg" xmlns:xlink="http://www.w3.org/1999/xlink" x="0px" y="0px"
	 viewBox="0 0 95 95" style="enable-background:new 0 0 95 95;" xml:space="preserve">
<style type="text/css">
	.st0{fill:none;stroke:#000000;stroke-width:2.7832;stroke-miterlimit:1.8555;}
</style>
<g>
	<path class="st0" d="M24.7,87h45.6l22.8-39.5L70.3,8H24.7L1.9,47.5L24.7,87z"/>
	<path d="M52.9,21.4v9c0,0.6,0.5,1.1,1.1,1.1l3.5,0c1.5,0,2.9,0,4.4,0c1,0,2.1,0,3.1,0c1.5,0,2.9,0,4.4,0c0.5,0,0.9,0,1.4,0
		c1,0,2,0,2.9,0.1c0.3,0,0.6,0.1,0.7,0.3c1.1,1.2,1,1.9,1,3.8c0,0.6,0,1.3,0,1.9c0,0.7,0,1.4,0,2.1c0,0.7,0,1.4,0,2.1
		c0,1.8,0,3.7,0,5.5c0,1.1,0,2.3,0,3.4c0,2.2,0,4.3,0,6.5c0,0.7,0,1.4,0,2.1c0,0.9,0,0.9,0,1.9c0,0.6,0,1.1,0,1.7
		c-0.1,1.2-0.1,1.3-1,2.1c-0.2,0.2-0.5,0.3-0.7,0.3c-1.5,0.1-2.9,0.1-4.3,0.1c-0.5,0-0.9,0-1.4,0c-1.5,0-3,0-4.5,0c-1,0-2,0-3.1,0
		c-2.1,0-4.3,0-6.4,0c-0.6,0-1.1,0.5-1.1,1.1v9c0,0.6-0.5,1.1-1.1,1.1c-4,0-4.1,0-6-0.3c-0.5-0.1-0.9-0.1-1.4-0.2
		c-0.7-0.1-0.7-0.1-1.5-0.2c-0.5-0.1-1-0.2-1.5-0.3c-1.1-0.2-2.1-0.4-3.2-0.5c-1.6-0.3-3.3-0.5-4.9-0.8c-1-0.2-2.1-0.3-3.1-0.5
		c-0.5-0.1-1-0.2-1.5-0.2c-0.5-0.1-0.9-0.2-1.4-0.2L26,72.8c-0.1,0-0.1,0-0.2,0c-1.3-0.4-2.1-0.8-3-1.7c-0.2-0.2-0.3-0.4-0.3-0.6
		c-0.2-1.3-0.3-2.5-0.2-3.9c0-0.4,0-0.9,0-1.3c0-1.4,0-2.9,0-4.3c0-1,0-2,0-3c0-2.1,0-4.2,0-6.3c0-2.7,0-5.4,0-8.1
		c0-2.1,0-4.1,0-6.2c0-1,0-2,0-3c0-1.4,0-2.8,0-4.2c0-0.4,0-0.8,0-1.2c0-1.7,0.1-2.7,1.1-3.9c0.1-0.1,0.2-0.2,0.4-0.3
		c1.1-0.5,2.1-0.8,3.4-1.1c0.5-0.1,0.9-0.2,1.4-0.2c0.7-0.1,0.7-0.1,1.5-0.2c0.5-0.1,1-0.2,1.5-0.3c1.1-0.2,2.2-0.4,3.2-0.5
		c1.6-0.3,3.3-0.5,4.9-0.8c1-0.2,2.1-0.3,3.1-0.5c0.5-0.1,1-0.2,1.5-0.2c0.7-0.1,0.7-0.1,1.4-0.2l1.2-0.2c0,0,0.1,0,0.1,0
		c1.6-0.2,3.2-0.1,4.8-0.1C52.4,20.3,52.9,20.8,52.9,21.4z M47.8,22.9c-0.7,0.1-0.7,0.1-1.5,0.2c-0.8,0.1-0.8,0.1-1.6,0.3
		c-0.5,0.1-1.1,0.2-1.6,0.3c-1.1,0.2-2.3,0.4-3.4,0.5c-1.7,0.3-3.5,0.6-5.2,0.8c-1.1,0.2-2.2,0.4-3.3,0.5c-0.5,0.1-1,0.2-1.6,0.3
		c-0.5,0.1-1,0.2-1.5,0.2c-0.6,0.1-0.6,0.1-1.3,0.2c-0.8,0.1-1,0.2-1.6,0.4c-0.4,0.2-0.6,0.6-0.6,1v41.1c0,0.5,0.4,1,0.8,1.1
		c7.8,1.9,15.8,2.9,23.7,4.1c0.7,0.1,1.3-0.4,1.3-1.1V23.7c0-0.7-0.6-1.2-1.2-1.1C48.9,22.7,48.3,22.8,47.8,22.9z M52.9,34.8v12.8
		c0,0.9,1.1,1.4,1.8,0.8l2.1-1.8c0.6-0.6,1.3-1.1,2-1.7c2.4-2.1,4.7-4.2,7-6.3c0.4-0.3,0.8-0.7,1.1-1.1c0.4-0.3,0.7-0.7,1.1-1
		c0.3-0.3,0.6-0.6,1-0.9c0,0,0,0,0,0c0.7-0.7,0.2-1.9-0.7-1.9H54C53.4,33.7,52.9,34.2,52.9,34.8z M70.5,37.2
		c-0.4,0.4-0.8,0.8-1.2,1.2c-0.4,0.4-0.9,0.8-1.3,1.2c-2.9,2.7-5.7,5.4-8.7,8c-0.4,0.4-0.5,1.1-0.1,1.5c1.3,1.7,2.8,3,4.5,4.4
		c2.7,2.2,5.3,4.4,7.8,6.8c0,0,0.1,0,0.1,0.1c0.9,0.9,0.9,0.9,1.6,0.9V37.3c0-1-1.2-1.5-1.9-0.8C70.9,36.8,70.7,37,70.5,37.2z
		 M53.1,52.6c-0.2,0.2-0.3,0.4-0.4,0.6c-0.3,1.6-0.2,3.2-0.1,4.8l0.2,3.9c0,0.6,0.5,1.1,1.1,1.1h13.9c0.9,0,1.5-1.1,0.8-1.8
		c-1.3-1.5-2.5-2.7-4.2-4c-2.3-1.9-4.6-3.8-6.9-5.8C55.9,49.8,54.6,51.3,53.1,52.6z"/>
	<path d="M40,39.9c2.9,1.3,4.6,2.6,5.6,5.1c0.1,1.1,0.1,2.1,0.1,3.2c0,0.6,0,1.1,0,1.7c-0.3,2.4-1.2,3.9-3.3,5.5
		c-2.3,1.3-4.2,1.6-7,1.2c-2.9-1.3-4.6-2.6-5.6-5.1c-0.1-1.1-0.1-2.1-0.1-3.2c0-0.8,0-0.8,0-1.7c0.3-2.4,1.2-3.9,3.3-5.5
		C35.3,39.9,37.2,39.6,40,39.9z M33.8,43.2c-1.6,2.3-2.1,4.4-1.7,7c0.7,2,1.2,3,3.2,4.2c2.3,0.6,3.5,0.3,5.7-0.5
		c2-1.7,2.2-3.2,2.4-5.5c0-2-0.6-3.5-1.8-5.2C38.5,41.5,37,41.5,33.8,43.2z"/>
</g>
</svg>
